components/Common/Svg/svgs/rocket.svg

<svg width="40" height="40" viewBox="0 0 40 40" fill="none" xmlns="http://www.w3.org/2000/svg">
<path d="M15.5871 29.1355C14.7672 31.5949 12.8047 33.4044 9.9119 34.3688C8.60275 34.8021 7.23726 35.0416 5.85878 35.0797C5.61014 35.0797 5.37168 34.981 5.19586 34.8052C5.02005 34.6293 4.92128 34.3909 4.92128 34.1422C4.95945 32.7639 5.19902 31.3985 5.63237 30.0894C6.59675 27.1965 8.40643 25.234 10.8657 24.4141C10.9826 24.3746 11.1062 24.3585 11.2294 24.3669C11.3525 24.3753 11.4728 24.4079 11.5833 24.4628C11.6939 24.5178 11.7925 24.5941 11.8734 24.6872C11.9544 24.7804 12.0162 24.8887 12.0552 25.0058C12.0943 25.1229 12.1098 25.2465 12.1009 25.3697C12.0921 25.4928 12.0589 25.613 12.0035 25.7232C11.9481 25.8335 11.8714 25.9318 11.7779 26.0124C11.6844 26.093 11.5759 26.1543 11.4586 26.1929C7.97893 27.3527 7.09612 31.2558 6.87221 33.1265C8.743 32.8983 12.653 32.0087 13.8082 28.5426C13.8868 28.3067 14.0559 28.1117 14.2783 28.0005C14.3884 27.9454 14.5083 27.9126 14.6311 27.9038C14.754 27.8951 14.8773 27.9107 14.9941 27.9496C15.1109 27.9885 15.2189 28.0501 15.3119 28.1308C15.4049 28.2114 15.4811 28.3096 15.5362 28.4197C15.5913 28.5299 15.6241 28.6498 15.6328 28.7726C15.6415 28.8954 15.626 29.0187 15.5871 29.1355ZM31.2703 17.1277L29.7772 18.6207V28.3213C29.778 28.6087 29.7218 28.8933 29.6118 29.1588C29.5018 29.4243 29.3403 29.6654 29.1366 29.868L24.0832 34.9215C23.8032 35.2015 23.4525 35.4002 23.0684 35.4965C22.6844 35.5928 22.2814 35.5831 21.9024 35.4684C21.5234 35.3536 21.1827 35.1382 20.9166 34.845C20.6505 34.5518 20.4689 34.1919 20.3913 33.8037L19.1372 27.5333L12.4677 20.8638L6.19753 19.6097C5.80928 19.5321 5.44939 19.3506 5.15623 19.0845C4.86306 18.8183 4.64761 18.4777 4.53286 18.0987C4.41811 17.7198 4.40835 17.3168 4.50463 16.9328C4.60091 16.5487 4.79961 16.198 5.07956 15.918L10.1332 10.8646C10.3358 10.6608 10.5769 10.4993 10.8424 10.3894C11.108 10.2794 11.3926 10.2232 11.68 10.224H21.3805L22.8736 8.73068C27.2399 4.36443 31.7035 4.48881 33.4203 4.74475C33.8834 4.81199 34.3123 5.02708 34.6432 5.35796C34.974 5.68883 35.1891 6.11778 35.2563 6.58084C35.5125 8.2974 35.6367 12.7612 31.2703 17.1277ZM6.56534 17.7712L12.6217 18.9826L19.5055 12.099H11.6799C11.6388 12.0988 11.5981 12.1069 11.5601 12.1226C11.5222 12.1383 11.4877 12.1614 11.4588 12.1905L6.40534 17.2437C6.36531 17.2837 6.33691 17.3338 6.32315 17.3887C6.3094 17.4436 6.31081 17.5012 6.32724 17.5554C6.34366 17.6095 6.37449 17.6582 6.41643 17.6962C6.45836 17.7342 6.50983 17.7601 6.56534 17.7712ZM27.9022 20.4957L21.0186 27.3794L22.23 33.436C22.2411 33.4915 22.267 33.5429 22.3051 33.5848C22.3431 33.6267 22.3918 33.6575 22.4459 33.6739C22.5001 33.6903 22.5577 33.6917 22.6126 33.6779C22.6674 33.6641 22.7175 33.6357 22.7575 33.5957L27.8108 28.5422C27.8399 28.5133 27.8629 28.4788 27.8786 28.4409C27.8943 28.403 27.9023 28.3623 27.9022 28.3213V20.4957ZM29.9447 15.8018C31.1983 14.548 34.0447 11.1668 33.4019 6.85771C33.3925 6.79252 33.3622 6.73213 33.3156 6.68555C33.2691 6.63898 33.2087 6.60871 33.1435 6.59928C28.8346 5.95631 25.4532 8.80287 24.1992 10.0565L22.4321 11.8237L22.4311 11.8247L14.2557 20.0002L20.001 25.7455L28.1766 17.5699L28.1772 17.5691L29.9447 15.8018Z" fill="#161616"/>
</svg>

<svg width="40" height="40" viewBox="0 0 40 40" fill="none" xmlns="http://www.w3.org/2000/svg"><path d="M15.587 29.136c-.82 2.459-2.782 4.268-5.675 5.233-1.31.433-2.675.673-4.053.71a.938.938 0 0 1-.938-.937c.038-1.378.278-2.744.711-4.053.965-2.892 2.774-4.855 5.234-5.675a.937.937 0 1 1 .593 1.779c-3.48 1.16-4.363 5.063-4.587 6.933 1.871-.228 5.781-1.117 6.936-4.583a.937.937 0 1 1 1.78.593ZM31.27 17.128l-1.493 1.493v9.7a2.172 2.172 0 0 1-.64 1.547l-5.054 5.054a2.187 2.187 0 0 1-3.692-1.118l-1.254-6.27-6.67-6.67-6.27-1.254a2.187 2.187 0 0 1-1.117-3.692l5.053-5.053a2.17 2.17 0 0 1 1.547-.641h9.7l1.494-1.493c4.366-4.367 8.83-4.242 10.546-3.986a2.17 2.17 0 0 1 1.836 1.836c.257 1.716.38 6.18-3.986 10.547Zm-24.705.643 6.057 1.212 6.884-6.884H11.68a.31.31 0 0 0-.221.091l-5.054 5.054a.312.312 0 0 0 .16.527Zm21.337 2.725-6.883 6.883 1.211 6.057a.312.312 0 0 0 .527.16l5.054-5.054a.31.31 0 0 0 .091-.22v-7.826Zm2.043-4.694c1.253-1.254 4.1-4.635 3.457-8.944a.305.305 0 0 0-.258-.259c-4.31-.643-7.69 2.204-8.945 3.457l-1.767 1.768L14.255 20 20 25.745l8.176-8.175 1.768-1.768Z" fill="#161616"/></svg>
